X:3583
T:Le Chemin Du Village
O:england
M:6/4
L:1/8
S:Tammles
R:Hanter Dro/An Dro
A:Brittany
N:Thanks to Turner Collins for giving me this tape
D:Tammles - Not Sure of Album Title
K:Em
|:EE BA G2 B2 F4| FG FE F2 FG (3FGF E2|EE BA G2 B2 F4|FG FE F2 DD E4:|
M:4/4 |:e2 (2gf e e2 ge|de dc cB B2|E2 (2GF E2 GE|DE GA AB B2:|


